icons/glyphs/glyph-kdevelop.svg

<?xml version="1.0" encoding="UTF-8" standalone="no"?><svg height="16" viewBox="0 0 4.2333332 4.2333332" width="16" xmlns="http://www.w3.org/2000/svg"><sodipodi:namedview/><metadata><rdf:RDF><cc:Work><dc:format>image/svg+xml</dc:format><dc:type/><dc:title/></cc:Work></rdf:RDF></metadata><path d="m1.9238832-.0000002-.189135.45063925a1.711371 1.711371 0 0 0 -.288263.093047l-.4177992-.25238233-.31198101.22623182.11129154.47496526a1.711371 1.711371 0 0 0 -.17757987.2456926l-.48652012.0407463-.11980556.3673227.36853895.3180625a1.711371 1.711371 0 0 0 -.007298.1520375 1.711371 1.711371 0 0 0  .007907.1520377l-.36914795.3186705.11980556.3673226.48591197.0401377a1.711371 1.711371 0 0 0  .17818802.2450847l-.11129154.4761816.31198101.2262318.4165828-.2517744a1.711371 1.711371 0 0 0  .2894794.093047l.189135.4500318h.3855671l.1891346-.4506398a1.711371 1.711371 0 0 0  .2882631-.0936552l.4177991.2529906.3119812-.2262318-.1112916-.4749652a1.711371 1.711371 0 0 0  .17758-.246301l.4865201-.0401378.1198054-.3673226-.3685389-.3180626a1.711371 1.711371 0 0 0  .00729-.1526457 1.711371 1.711371 0 0 0 -.00791-.1514293l.3691589-.3186706-.1198054-.3673228-.4859123-.0407462a1.711371 1.711371 0 0 0 -.1781878-.2444764l.1112916-.47618146-.3119812-.22623182-.4159745.25177413a1.711371 1.711371 0 0 0 -.2900877-.09365511l-.1891346-.44942294zm.2067709.81188044a1.3448789 1.3448789 0 0 1 1.3446201 1.34461996 1.3448789 1.3448789 0 0 1 -1.3446201 1.3452282 1.3448789 1.3448789 0 0 1 -1.34522815-1.3452282 1.3448789 1.3448789 0 0 1 1.34522815-1.34461996zm-.6671407.85931616a.92315532.63129314 45 0 0 -.3448212.1380501.92315532.63129314 45 0 0  .2061629 1.0989273.92315532.63129314 45 0 0 1.0995355.2061628.92315532.63129314 45 0 0 -.206771-1.0989272.92315532.63129314 45 0 0 -.7541062-.344213zm.5880812.4859119-.194.7224826-.5290908-.5284826z" fill="#d0d0d0" stroke-linecap="round" stroke-linejoin="round" stroke-width=".771308"/></svg>

<?xml version="1.0" encoding="UTF-8" standalone="no"?>
<!-- Created with Inkscape (http://www.inkscape.org/) -->

<svg
   xmlns:dc="http://purl.org/dc/elements/1.1/"
   xmlns:cc="http://creativecommons.org/ns#"
   xmlns:rdf="http://www.w3.org/1999/02/22-rdf-syntax-ns#"
   xmlns:svg="http://www.w3.org/2000/svg"
   xmlns="http://www.w3.org/2000/svg"
   xmlns:xlink="http://www.w3.org/1999/xlink"
   xmlns:sodipodi="http://sodipodi.sourceforge.net/DTD/sodipodi-0.dtd"
   xmlns:inkscape="http://www.inkscape.org/namespaces/inkscape"
   width="16"
   height="16"
   viewBox="0 0 4.2333332 4.2333332"
   version="1.1"
   id="svg8"
   inkscape:version="0.92+devel (f96dc7e339, 2017-07-28, custom)"
   sodipodi:docname="glyph-kdevelop.svg">
  <defs
     id="defs2">
    <linearGradient
       id="linearGradient3052">
      <stop
         id="stop3054"
         style="stop-color:#555753" />
      <stop
         id="stop3056"
         style="stop-color:#2e3436"
         offset="1" />
    </linearGradient>
    <radialGradient
       gradientTransform="matrix(0.58724559 -0.0000004 0 0.25688859 387.29707 527.70784)"
       gradientUnits="userSpaceOnUse"
       id="radialGradient3082"
       xlink:href="#linearGradient3052"
       r="17.995"
       cy="3.6836"
       cx="25.641" />
    <radialGradient
       gradientTransform="matrix(0.5872456,-4.0000001e-7,0,0.25688859,387.45769,529.05333)"
       gradientUnits="userSpaceOnUse"
       id="radialGradient3082-6"
       xlink:href="#linearGradient3052"
       r="17.995001"
       cy="3.6835999"
       cx="25.641001" />
  </defs>
  <sodipodi:namedview
     id="base"
     pagecolor="#002466"
     bordercolor="#ffffff"
     borderopacity="0.38039216"
     inkscape:pageopacity="1"
     inkscape:pageshadow="2"
     inkscape:zoom="36.415999"
     inkscape:cx="10.094581"
     inkscape:cy="7.9162778"
     inkscape:document-units="px"
     inkscape:current-layer="svg8"
     inkscape:document-rotation="0"
     showgrid="false"
     inkscape:showpageshadow="false"
     borderlayer="true"
     inkscape:window-width="1920"
     inkscape:window-height="1051"
     inkscape:window-x="0"
     inkscape:window-y="0"
     inkscape:window-maximized="1"
     units="px"
     inkscape:snap-object-midpoints="true"
     inkscape:snap-center="true"
     inkscape:snap-nodes="false" />
  <metadata
     id="metadata5">
    <rdf:RDF>
      <cc:Work
         rdf:about="">
        <dc:format>image/svg+xml</dc:format>
        <dc:type
           rdf:resource="http://purl.org/dc/dcmitype/StillImage" />
        <dc:title></dc:title>
      </cc:Work>
    </rdf:RDF>
  </metadata>
  <path
     style="fill:#d0d0d0;stroke-width:0.77130789;stroke-linecap:round;stroke-linejoin:round;fill-opacity:1"
     d="m 1.9238832,-2e-7 -0.189135,0.45063925 a 1.711371,1.711371 0 0 0 -0.288263,0.093047 L 1.028686,0.29130372 0.71670499,0.51753554 0.82799653,0.9925008 A 1.711371,1.711371 0 0 0 0.65041666,1.2381934 L 0.16389654,1.2789397 0.04409098,1.6462624 0.41262993,1.9643249 a 1.711371,1.711371 0 0 0 -0.007298,0.1520375 1.711371,1.711371 0 0 0 0.007907,0.1520377 L 0.04409098,2.5870706 0.16389654,2.9543932 0.64980851,2.9945309 A 1.711371,1.711371 0 0 0 0.82799653,3.2396156 L 0.71670499,3.7157972 1.028686,3.942029 1.4452688,3.6902546 a 1.711371,1.711371 0 0 0 0.2894794,0.093047 l 0.189135,0.4500318 H 2.3094503 L 2.4985849,3.7826936 A 1.711371,1.711371 0 0 0 2.786848,3.6890384 L 3.2046471,3.942029 3.5166283,3.7157972 3.4053367,3.240832 a 1.711371,1.711371 0 0 0 0.17758,-0.246301 L 4.0694368,2.9543932 4.1892422,2.5870706 3.8207033,2.269008 A 1.711371,1.711371 0 0 0 3.8279933,2.1163623 1.711371,1.711371 0 0 0 3.8200833,1.964933 L 4.1892422,1.6462624 4.0694368,1.2789396 3.5835245,1.2381934 A 1.711371,1.711371 0 0 0 3.4053367,0.993717 L 3.5166283,0.51753554 3.2046471,0.29130372 2.7886726,0.54307785 A 1.711371,1.711371 0 0 0 2.4985849,0.44942274 L 2.3094503,-2e-7 Z M 2.1306541,0.81188024 A 1.3448789,1.3448789 0 0 1 3.4752742,2.1565002 1.3448789,1.3448789 0 0 1 2.1306541,3.5017284 1.3448789,1.3448789 0 0 1 0.78542595,2.1565002 1.3448789,1.3448789 0 0 1 2.1306541,0.81188024 Z M 1.4635134,1.6711964 A 0.92315532,0.63129314 45 0 0 1.1186922,1.8092465 0.92315532,0.63129314 45 0 0 1.3248551,2.9081738 0.92315532,0.63129314 45 0 0 2.4243906,3.1143366 0.92315532,0.63129314 45 0 0 2.2176196,2.0154094 0.92315532,0.63129314 45 0 0 1.4635134,1.6711964 Z m 0.5880812,0.4859119 -0.194,0.7224826 -0.5290908,-0.5284826 z"
     id="path4814"
     inkscape:connector-curvature="0" />
</svg>
